X: 35
T:Wim's Waltz
T:Waltz for Polle
M:6/4
L:1/4
S:Belgian  - via Eurojam
C:Wim Pozen
R:Waltz / Air
N:Posted to uk.music.folk 21st August 2004
Z:Steve Mansfield
K:G
B3 ABd | D3-DEF | G3 EFG | B3 A3 | B3 ABd |
D3-DEF | G>AB AGF |1G3-G3 :|2 G3-G AB |
|: c2B A2G | F3-FBc | d2c B2A | G2F EAB |
c2B A2G | F3-FAF | G>AB AGF |1G3-GAB :|2 G3-G3 ||

